icons/svg/secure-badge_28.svg

<?xml version="1.0" encoding="UTF-8"?>
<svg width="28px" height="28px" viewBox="0 0 28 28" version="1.1" xmlns="http://www.w3.org/2000/svg" xmlns:xlink="http://www.w3.org/1999/xlink">
    <!-- Generator: Sketch 59.1 (86144) - https://sketch.com -->
    <title>secure-badge_28</title>
    <desc>Created with Sketch.</desc>
    <g id="Icons-Webex" stroke="none" stroke-width="1" fill="none" fill-rule="evenodd">
        <g id="alerts-and-notifications/secure-badge_28" fill="#171B1F">
            <path d="M26.0087557,8 C27.1084896,8 28,8.90195036 28,10.0085302 L28,17.9914698 C28,19.1007504 27.1001025,20 26.0087557,20 L1.99124431,20 C0.891510444,20 0,19.0980496 0,17.9914698 L0,10.0085302 C0,8.8992496 0.899897516,8 1.99124431,8 L26.0087557,8 Z M26,9 L2,9 C1.44771525,9 1,9.44771525 1,10 L1,10 L1,18 C1,18.5522847 1.44771525,19 2,19 L2,19 L26,19 C26.5522847,19 27,18.5522847 27,18 L27,18 L27,10 C27,9.44771525 26.5522847,9 26,9 L26,9 Z M4.572,11.5 C5.16933632,11.5 5.64766487,11.6376653 6.007,11.913 C6.31966823,12.1556679 6.50633303,12.4776647 6.567,12.879 L5.685,12.879 C5.65233317,12.6409988 5.52633443,12.4590006 5.307,12.333 C5.11099902,12.2256661 4.86133485,12.172 4.558,12.172 C4.20333156,12.172 3.94200084,12.2373327 3.774,12.368 C3.64333268,12.4706672 3.578,12.6083325 3.578,12.781 C3.578,12.9956677 3.66899909,13.1589994 3.851,13.271 C3.9910007,13.3590004 4.23899852,13.4521426 4.59499932,13.5504284 L4.782,13.6 C5.46800343,13.7820009 5.9509986,13.9989987 6.231,14.251 C6.50166802,14.4983346 6.637,14.8273313 6.637,15.238 C6.637,15.6953356 6.44333527,16.0639986 6.056,16.344 C5.68733149,16.614668 5.20433632,16.75 4.607,16.75 C3.98633023,16.75 3.48233527,16.5913349 3.095,16.274 C2.76366501,15.9986653 2.56533366,15.6416689 2.5,15.203 L3.389,15.203 C3.43100021,15.4876681 3.56633219,15.7069992 3.795,15.861 C4.00500105,16.0010007 4.2733317,16.071 4.6,16.071 C4.99666865,16.071 5.29533233,15.9893341 5.496,15.826 C5.65466746,15.690666 5.734,15.518001 5.734,15.308 C5.734,15.0559987 5.61266788,14.862334 5.37,14.727 C5.17399902,14.6103327 4.81000266,14.4820007 4.278,14.342 C3.68999706,14.1879992 3.27466788,13.9966678 3.032,13.768 C2.79399881,13.5393322 2.675,13.2360019 2.675,12.858 C2.675,12.4193311 2.85933149,12.0786679 3.228,11.836 C3.56400168,11.6119989 4.0119972,11.5 4.572,11.5 Z M8.968,12.9 C9.56066963,12.9 10.0086652,13.0936647 10.312,13.481 C10.5966681,13.8403351 10.739,14.3536633 10.739,15.021 L8.016,15.021 C8.04866683,15.413002 8.16999895,15.6999991 8.38,15.882 C8.54800084,16.0313341 8.76733198,16.106 9.038,16.106 C9.22933429,16.106 9.3949993,16.0593338 9.535,15.966 C9.6750007,15.8726662 9.7683331,15.7490008 9.815,15.595 L10.697,15.595 C10.5989995,15.9683352 10.3960015,16.2576656 10.088,16.463 C9.79399853,16.6543343 9.43233548,16.75 9.003,16.75 C8.41033037,16.75 7.94833499,16.5633352 7.617,16.19 C7.31366515,15.8493316 7.162,15.3943362 7.162,14.825 C7.162,14.1716634 7.35099811,13.6723351 7.729,13.327 C8.04633492,13.0423319 8.45933079,12.9 8.968,12.9 Z M13.056,12.9 C13.5273357,12.9 13.9169985,13.0213321 14.225,13.264 C14.495668,13.4786677 14.661333,13.7563316 14.722,14.097 L13.812,14.097 C13.7699998,13.9243325 13.6836673,13.7878338 13.553,13.6875 C13.4223327,13.5871662 13.2636676,13.537 13.077,13.537 C12.7736652,13.537 12.5426675,13.6583321 12.384,13.901 C12.2346659,14.1296678 12.16,14.4563312 12.16,14.881 C12.16,15.3103355 12.2603323,15.6346656 12.461,15.854 C12.6196675,16.0266675 12.8203321,16.113 13.063,16.113 C13.2683344,16.113 13.4374993,16.0570006 13.5705,15.945 C13.7035007,15.8329994 13.7933331,15.672001 13.84,15.462 L14.736,15.462 C14.6659997,15.868002 14.4723349,16.1876655 14.155,16.421 C13.8563318,16.6403344 13.4876689,16.75 13.049,16.75 C12.4703304,16.75 12.0223349,16.5656685 11.705,16.197 C11.4203319,15.865665 11.278,15.4200028 11.278,14.86 C11.278,14.2066634 11.4599982,13.7050017 11.824,13.355 C12.1413349,13.0516651 12.5519975,12.9 13.056,12.9 Z M16.241,13.005 L16.241,15.399 C16.241,15.865669 16.4696644,16.099 16.927,16.099 C17.1930013,16.099 17.4006659,16.0033343 17.55,15.812 C17.6713339,15.6486658 17.732,15.4480012 17.732,15.21 L17.732,13.005 L18.572,13.005 L18.572,16.645 L17.879,16.645 L17.788,16.239 C17.5266654,16.5796684 17.162669,16.75 16.696,16.75 C16.2666645,16.75 15.9376678,16.6193346 15.709,16.358 C15.5036656,16.1199988 15.401,15.7933354 15.401,15.378 L15.401,13.005 L16.241,13.005 Z M23.696,12.9 C24.2886696,12.9 24.7366652,13.0936647 25.04,13.481 C25.3246681,13.8403351 25.467,14.3536633 25.467,15.021 L22.744,15.021 C22.7766668,15.413002 22.897999,15.6999991 23.108,15.882 C23.2760008,16.0313341 23.495332,16.106 23.766,16.106 C23.9573343,16.106 24.1229993,16.0593338 24.263,15.966 C24.4030007,15.8726662 24.4963331,15.7490008 24.543,15.595 L25.425,15.595 C25.3269995,15.9683352 25.1240015,16.2576656 24.816,16.463 C24.5219985,16.6543343 24.1603355,16.75 23.731,16.75 C23.1383304,16.75 22.676335,16.5633352 22.345,16.19 C22.0416652,15.8493316 21.89,15.3943362 21.89,14.825 C21.89,14.1716634 22.0789981,13.6723351 22.457,13.327 C22.7743349,13.0423319 23.1873308,12.9 23.696,12.9 Z M21.197,12.9 C21.3463341,12.9 21.4816661,12.9163332 21.603,12.949 L21.603,13.761 C21.4489992,13.7143331 21.3020007,13.691 21.162,13.691 C20.9006654,13.691 20.6906675,13.8053322 20.532,14.034 C20.3826659,14.2533344 20.308,14.5566647 20.308,14.944 L20.308,16.645 L19.468,16.645 L19.468,13.005 L20.161,13.005 L20.266,13.551 C20.4713344,13.1169978 20.7816646,12.9 21.197,12.9 Z M8.968,13.495 C8.69733198,13.495 8.48033415,13.5836658 8.317,13.761 C8.16766592,13.9196675 8.07200021,14.1483318 8.03,14.447 L9.878,14.447 C9.85933324,14.1063316 9.7566676,13.8566675 9.57,13.698 C9.41599923,13.562666 9.21533457,13.495 8.968,13.495 Z M23.696,13.495 C23.425332,13.495 23.2083342,13.5836658 23.045,13.761 C22.8956659,13.9196675 22.8000002,14.1483318 22.758,14.447 L22.758,14.447 L24.606,14.447 C24.5873332,14.1063316 24.4846676,13.8566675 24.298,13.698 C24.1439992,13.562666 23.9433346,13.495 23.696,13.495 Z" id="fill"></path>
        </g>
    </g>
</svg>

<svg width="28" height="28" xmlns="http://www.w3.org/2000/svg"><path d="M26.009 8c1.1 0 1.991.902 1.991 2.009v7.982c0 1.11-.9 2.009-1.991 2.009H1.99C.891 20 0 19.098 0 17.991V10.01C0 8.899.9 8 1.991 8H26.01zM26 9H2a1 1 0 00-1 1v8a1 1 0 001 1h24a1 1 0 001-1v-8a1 1 0 00-1-1zM4.572 11.5c.597 0 1.076.138 1.435.413.313.243.5.565.56.966h-.882a.717.717 0 00-.378-.546c-.196-.107-.446-.161-.749-.161-.355 0-.616.065-.784.196a.498.498 0 00-.196.413c0 .215.091.378.273.49.14.088.388.181.744.28l.187.049c.686.182 1.169.399 1.449.651.27.247.406.576.406.987 0 .457-.194.826-.581 1.106-.369.27-.852.406-1.449.406-.62 0-1.125-.159-1.512-.476a1.663 1.663 0 01-.595-1.071h.889a.919.919 0 00.406.658c.21.14.478.21.805.21.397 0 .695-.082.896-.245a.65.65 0 00.238-.518c0-.252-.121-.446-.364-.581-.196-.117-.56-.245-1.092-.385-.588-.154-1.003-.345-1.246-.574-.238-.229-.357-.532-.357-.91 0-.439.184-.78.553-1.022.336-.224.784-.336 1.344-.336zm4.396 1.4c.593 0 1.04.194 1.344.581.285.36.427.873.427 1.54H8.016c.033.392.154.679.364.861.168.15.387.224.658.224a.875.875 0 00.497-.14.67.67 0 00.28-.371h.882a1.446 1.446 0 01-.609.868c-.294.191-.656.287-1.085.287-.593 0-1.055-.187-1.386-.56-.303-.34-.455-.796-.455-1.365 0-.653.189-1.153.567-1.498.317-.285.73-.427 1.239-.427zm4.088 0c.471 0 .861.121 1.169.364.27.215.436.492.497.833h-.91a.71.71 0 00-.259-.41.758.758 0 00-.476-.15.777.777 0 00-.693.364c-.15.229-.224.555-.224.98 0 .43.1.754.301.973.159.173.36.259.602.259a.76.76 0 00.507-.168.848.848 0 00.27-.483h.896c-.07.406-.264.726-.581.959-.299.22-.667.329-1.106.329-.579 0-1.027-.184-1.344-.553-.285-.331-.427-.777-.427-1.337 0-.653.182-1.155.546-1.505.317-.303.728-.455 1.232-.455zm3.185.105v2.394c0 .467.229.7.686.7.266 0 .474-.096.623-.287a.981.981 0 00.182-.602v-2.205h.84v3.64h-.693l-.091-.406c-.261.34-.625.511-1.092.511-.43 0-.758-.13-.987-.392-.205-.238-.308-.565-.308-.98v-2.373h.84zm7.455-.105c.593 0 1.04.194 1.344.581.285.36.427.873.427 1.54h-2.723c.033.392.154.679.364.861.168.15.387.224.658.224a.875.875 0 00.497-.14.67.67 0 00.28-.371h.882a1.446 1.446 0 01-.609.868c-.294.191-.656.287-1.085.287-.593 0-1.055-.187-1.386-.56-.303-.34-.455-.796-.455-1.365 0-.653.189-1.153.567-1.498.317-.285.73-.427 1.239-.427zm-2.499 0c.15 0 .285.016.406.049v.812a1.52 1.52 0 00-.441-.07.733.733 0 00-.63.343c-.15.22-.224.523-.224.91v1.701h-.84v-3.64h.693l.105.546c.205-.434.516-.651.931-.651zm-12.229.595c-.27 0-.488.089-.651.266-.15.159-.245.387-.287.686h1.848c-.019-.34-.121-.59-.308-.749-.154-.135-.355-.203-.602-.203zm14.728 0c-.27 0-.488.089-.651.266-.15.159-.245.387-.287.686h1.848c-.019-.34-.121-.59-.308-.749-.154-.135-.355-.203-.602-.203z" fill="#171B1F" fill-rule="evenodd"/></svg>
